X:1
T:March
T:March
T:Song of the Lark. Op. 37a, No. 3
T:Pyotr Ilyich Tchaikovsky
C:Pyotr Ilyich Tchaikovsky
%%score { ( 1 4 ) | ( 2 3 ) }
L:1/8
Q:1/4=50
M:2/4
K:Bb
V:1 treble nm="Piano" snm="Pno."
V:4 treble 
V:2 bass 
V:3 bass 
V:1
"^Andantino espressivo"!p! z4 | z4 | z!p! .G/(3G/4A/4G/4 (^F>A) |!<(! (G/B/d/^f/)!<)! (!>!g>(f) | %4
 d)[G,B,D] z [A,CD] |!<(! z [B,D]!<)! z [A,CD] | z G/(3(G/4A/4G/4)!<(! (^F>A) | %7
 (G/B/d/^f/) (!>!g>=f)!<)! | (f[ce]) (dc) |!>(! (.c/.^F/.G/.A/)!>)! (!>!B>A | %10
 G)"^un pochettino più mosso" d{de} (d>!f!A) |!<(! .B/.^c/.d/.e/ .f/.^f/.b/.a/!<)! | %12
!<(!{/a} (c'>b){/b} .d'/.a/{/b}.d'/.a/!<)! |!>(!{/a} d'/gb/- b/^fa/- | a/dg/!>)!{de} (d>A) | %15
!<(! .B/.^c/.d/.e/ .f/.^f/.b/.a/!<)! |!<(!{/a} (c'>b){/^f} .b/.f/{/f}.b/.f/!<)! | %17
!>(!{/^f} a/dg/{/d} .B/.A/{/d}.B/.A/!>)! |{/d} A/(GD/)!<(!{DE} (D>A,) | %19
 .B,/.^C/.D/.E/ .F/.^F/.B/.A/ |{/A} (c>!<)!B){/B} .d/.A/{/B}.d/.A/ | %21
!>(!{/A} d/(DG/){/D} .G/.^C/{/D}.G/.C/ |{/D} (G>!>)!^F) z/ (3(D/4E/4D/4) ^C/>D/ | %23
 .^F/4.^G/4.A/4.^c/4d z/ =g/4(3(g/8a/8!<(!g/8)(^f/>g/)!<)! | %24
!>(! d'/(d!>)!D/) z/ (3(D/4E/4D/4) (^C/>D/) | %25
 .^F/4.^G/4.A/4.^c/4d z/!<(! =g/4(3(g/8a/8g/8)(^f/>g/) | %26
 d'/(dD/) z/ .g/4(3(g/8a/8g/8)(^f/>g/)!<)! | d'/(dD/)"_dim." z/ (^c^C/) | %28
"^poco ritenuto" z/ (dD/) z/!>(! (^c^C/) | z/ (dD/) z/ (dD/)!>)! | %30
"^a tempo"!p! z .G/(3(G/4A/4G/4) (^F>A) |!<(! (G/B/d/^f/)!<)! (!>!g>f | d)[G,B,D] z [A,CD] | %33
!<(! z [B,D]!<)! z [A,CD] | z .G/(3(G/4A/4G/4)!<(! (^F>A) | (G/B/d/^f/) (!>!g>=f)!<)! | %36
 (f[ce]) (dc) | (.c/.^F/.G/.A/) (!>!B>A | G).G/!pp!(3(G/4A/4G/4) (^F>A) | (G/B/d/^f/) (!>!g>f) | %40
 d!pp![G,B,D]/ z/ z [A,CD]/ z/ | z [G,B,D]/ z/ z [A,CD]/ z/ |!ppp! z [B,D]/ z/ z [A,CD]/ z/ | %43
 z [B,D]/ z/ z [A,CD]/ z/ |!>(! z [G,B,D]2 [G,B,D]- | [G,B,D] [G,B,D]2!>)! !fermata![G,B,D] |] %46
V:2
 [B,D]2 [CE]2 | [B,D]2 [A,CD]2 | [B,D]2 [CE]2 | [B,D]2!ped! [A,CD]2!ped-up! | [B,D] x x2 | %5
 x4!ped!!ped-up! | z [G,B,D]!ped! z [^F,A,D]!ped-up! | %7
!ped! z [G,B,D]!ped-up!!ped! z [G,=B,D]!ped-up! | z/ (^F,/G,/C/) (!>!=F>E) | [G,B,D]2 z D | %10
 [G,,D,]"^poco più" z[K:treble] [E_G]2 | [DF]2 [CE]2 |!ped! [DF]2!ped! [D^Fc]2!ped-up! | %13
!ped! [DGB]2!ped! [CE]2!ped-up! |!ped! D2 [E_G]2!ped-up! | [DF]2 [=CE]2 | %16
!ped! [DF]2!ped! [D^Fc]2!ped-up! |!ped! [DGB]2[K:bass]!ped-up!!ped! [D,^F,C]2!ped-up! | %18
 [D,G,B,]2 [E,_G,]2 | [D,F,]2 [=C,E,]2 |!ped! [D,F,]2!ped! [D,^F,C]2!ped-up! | %21
!ped! [D,G,B,]2!ped-up!!ped! [=E,A,]2!ped-up! |!ped! D,2 [G,B,]2!ped-up! | [A,=C]2!ped! [B,D]2 | %24
!ped! [A,C]2!ped-up! [G,B,]2 | [A,=C]2!ped! [B,D]2!ped-up! |!ped! [A,C]2!ped-up!!ped! [B,D]2 | %27
!ped! [A,C]2!ped-up!!ped! [G,B,]2!ped-up! |!ped! [^F,A,]2!ped-up!!ped! [G,B,]2!ped-up! | %29
!ped! [^F,A,]2 [F,A,]2!ped-up! | [B,D]2 [CE]2 | [B,D]2!ped! [A,CD]2!ped-up! | [B,D]2 x2 | x4 | %34
 z [G,B,D]!ped! z [^F,A,D]!ped-up! |!ped! z [G,B,D]!ped-up!!ped! z [G,=B,D]!ped-up! | %36
 z/ (^F,/G,/C/) (!>!=F>E) | [G,B,D]2 z D | x D/ z/ z [CE]/ z/ | z [B,D]/ z/ z [CE]/ z/ | %40
 [B,D] x x2 | x4 | x4 | x4 | x4 | x4 |] %46
V:3
 z G,2 G,- | G, G,2 G, | z G,2 G,- | G, G,2 G,- | G,.G,,/(3(G,,/4A,,/4G,,/4) (^F,,>A,,) | %5
 (G,,/B,,/D,/^F,/) (!>!G,>F,) | (D,2 C,2 | B,,) z =B,, z | C, z z [G,C] | z D,- D,2 | %10
 x2[K:treble] z B,- | B, B,2 B,- | B, B,2 B,- | B, B,2 B,- | B, B,2 B,- | B, B,2 B,- | B, B,2 B,- | %17
 B,B,[K:bass] z B,,- | B,, B,,2 B,,- | B,, B,,2 B,,- | B,, B,,2 B,,- | B,,B,, z A,, | z D,, z D, | %23
 z D, z D, | z D, z D, | z D, z D, | z D, z D, | z D, z D, | z D, z D, | z D, z D, | z G,2 G,- | %31
 G, G,2 G,- | G,.G,,/(3(G,,/4A,,/4G,,/4) (^F,,>A,,) | (G,,/B,,/D,/^F,/) (!>!G,>F,) | (D,2 C,2 | %35
 B,,) z =B,, z | C, z z [G,C] | z D,- D,2 | [G,,D,][G,-B,] G,2- | G,4- | %40
 G,G,,/(3(G,,/4A,,/4G,,/4) (^F,,>A,,) | (G,,/B,,/D,/^F,/) (!>!G,>F,) | [G,,D,] z (!>!G,>^F,) | %43
 [G,,D,] z (G,>^F, | [G,,D,]4-) | !fermata![G,,D,]4 |] %46
V:4
 x4 | x4 | x4 | x4 | x4 | x4 | x4 | x4 | z G z G | z2 [C^F]2 | [B,D] x3 | x4 | x4 | x4 | x4 | x4 | %16
 x4 | x4 | x4 | x4 | x4 | x4 | z/ A,/-A, x2 | x4 | x4 | x4 | x4 | x4 | x4 | x4 | x4 | x4 | x4 | %33
 x4 | x4 | x4 | z G z G | z2 [C^F]2 | x4 | x4 | x4 | x4 | x4 | x4 | x4 | x4 |] %46

